public/images/home logo.svg

<svg fill="none" height="28" viewBox="0 0 28 28" width="28" xmlns="http://www.w3.org/2000/svg"><circle cx="14" cy="14" fill="#f5ecd5" r="14"/><path d="m7 11.9 7-4.9 7 4.9v7.7c0 .3713-.1639.7274-.4556.9899-.2917.2626-.6874.4101-1.1.4101h-10.88884c-.41256 0-.80823-.1475-1.09995-.4101-.29172-.2625-.45561-.6186-.45561-.9899z" fill="#587a33"/><path d="m11 16c0-.5523.4477-1 1-1h4c.5523 0 1 .4477 1 1v6h-6z" fill="#f5ecd5"/></svg>

<svg width="28" height="28" viewBox="0 0 28 28" fill="none" xmlns="http://www.w3.org/2000/svg">
<circle cx="14" cy="14" r="14" fill="#F5ECD5"/>
<path d="M7 11.9L14 7L21 11.9V19.6C21 19.9713 20.8361 20.3274 20.5444 20.5899C20.2527 20.8525 19.857 21 19.4444 21H8.55556C8.143 21 7.74733 20.8525 7.45561 20.5899C7.16389 20.3274 7 19.9713 7 19.6V11.9Z" fill="#587A33"/>
<path d="M11 16C11 15.4477 11.4477 15 12 15H16C16.5523 15 17 15.4477 17 16V22H11V16Z" fill="#F5ECD5"/>
</svg>
